X: 14093
T: SOPHIE'S GOATS
C: Bob McQuillen Aug'08
B: Bob's Note Book 14 #93
%R: jig
%D:2008
Z: 2020 John Chambers <jc:trillian.mit.edu>
M: 6/8
L: 1/8
K: G
|:DEG E2D | GBG E2D | GED GBd | edB AGE |\
| DEG EDE | GBd e2d | Bde ged | eag fed :|
|:geg dBd | cde d2B | GBd ege | dBG A2B |\
| cec BdB | GAB AFD | BdB cAF | AGG G2 :|
%%begintext align
%% Sophie Orzechowski
%% got real busy and built a real nice high
%% fence. Then she built a nice little house.
%% Then she got three real nice little goats.
%% Then shs put the whole thing together and now
%% she has the Sugar River Goat Farm. Great stuff.
%% Real nice.  So's Sophie!
%%endtext

%%sep 1 1 500

%%sep 1 1 500

